public/icons/usdc.svg

<svg width="32" height="32" viewBox="0 0 32 32" fill="none" xmlns="http://www.w3.org/2000/svg">
<path d="M16 32C24.8667 32 32 24.8667 32 16C32 7.13328 24.8667 0 16 0C7.13328 0 0 7.13328 0 16C0 24.8667 7.13328 32 16 32Z" fill="#2775CA"/>
<path d="M20.4 18.5333C20.4 16.2 19 15.4 16.2 15.0668C14.2001 14.8 13.8001 14.2668 13.8001 13.3333C13.8001 12.3999 14.4668 11.8 15.8 11.8C17 11.8 17.6668 12.2 18 13.2C18.0668 13.4 18.2668 13.5333 18.4668 13.5333H19.5333C19.8 13.5333 20 13.3333 20 13.0668V13C19.7333 11.5333 18.5333 10.4 17 10.2667V8.66674C17 8.40002 16.8 8.20002 16.4668 8.1333H15.4668C15.2001 8.1333 15.0001 8.3333 14.9333 8.66674V10.2C12.9333 10.4667 11.6668 11.8 11.6668 13.4668C11.6668 15.6668 13.0001 16.5333 15.8 16.8668C17.6668 17.2 18.2668 17.6 18.2668 18.6668C18.2668 19.7335 17.3333 20.4668 16.0668 20.4668C14.3333 20.4668 13.7333 19.7333 13.5333 18.7333C13.4668 18.4668 13.2668 18.3333 13.0668 18.3333H11.9334C11.6668 18.3333 11.4668 18.5333 11.4668 18.8V18.8668C11.7334 20.5333 12.8001 21.7333 15.0001 22.0668V23.6668C15.0001 23.9333 15.2001 24.1333 15.5333 24.2001H16.5333C16.8 24.2001 17 24.0001 17.0668 23.6668V22.0668C19.0667 21.7333 20.4 20.3333 20.4 18.5333V18.5333Z" fill="white"/>
<path d="M12.5998 25.5336C7.39984 23.667 4.73312 17.867 6.66656 12.7336C7.66656 9.93355 9.86656 7.80027 12.5998 6.80027C12.8666 6.66699 12.9998 6.46699 12.9998 6.13355V5.20027C12.9998 4.93355 12.8666 4.73355 12.5998 4.66699C12.5331 4.66699 12.3998 4.66699 12.3331 4.73355C5.99984 6.73355 2.53311 13.467 4.53311 19.8003C5.73312 23.5336 8.59984 26.4003 12.3331 27.6003C12.5998 27.7336 12.8666 27.6003 12.9331 27.3336C12.9998 27.267 12.9998 27.2003 12.9998 27.067V26.1336C12.9998 25.9336 12.7998 25.667 12.5998 25.5336ZM19.6666 4.73355C19.3998 4.60027 19.1331 4.73355 19.0666 5.00027C18.9998 5.06699 18.9998 5.13355 18.9998 5.26699V6.20027C18.9998 6.46699 19.1998 6.73355 19.3998 6.86699C24.5998 8.73355 27.2666 14.5336 25.3331 19.667C24.3331 22.467 22.1331 24.6003 19.3998 25.6003C19.1331 25.7336 18.9998 25.9336 18.9998 26.267V27.2003C18.9998 27.467 19.1331 27.667 19.3998 27.7336C19.4666 27.7336 19.5998 27.7336 19.6666 27.667C25.9998 25.667 29.4666 18.9336 27.4666 12.6003C26.2666 8.80027 23.3331 5.93355 19.6666 4.73355V4.73355Z" fill="white"/>
</svg>

<svg width="32" height="32" fill="none" xmlns="http://www.w3.org/2000/svg"><path d="M16 32c8.867 0 16-7.133 16-16S24.867 0 16 0 0 7.133 0 16s7.133 16 16 16Z" fill="#2775CA"/><path d="M20.4 18.533c0-2.333-1.4-3.133-4.2-3.466-2-.267-2.4-.8-2.4-1.734 0-.933.667-1.533 2-1.533 1.2 0 1.867.4 2.2 1.4.067.2.267.333.467.333h1.066c.267 0 .467-.2.467-.466V13a3.33 3.33 0 0 0-3-2.733v-1.6c0-.267-.2-.467-.533-.534h-1c-.267 0-.467.2-.534.534V10.2c-2 .267-3.266 1.6-3.266 3.267 0 2.2 1.333 3.066 4.133 3.4 1.867.333 2.467.733 2.467 1.8 0 1.066-.934 1.8-2.2 1.8-1.734 0-2.334-.734-2.534-1.734-.066-.266-.266-.4-.466-.4h-1.134c-.266 0-.466.2-.466.467v.067c.266 1.666 1.333 2.866 3.533 3.2v1.6c0 .266.2.466.533.533h1c.267 0 .467-.2.534-.533v-1.6c2-.334 3.333-1.734 3.333-3.534Z" fill="#fff"/><path d="M12.6 25.534c-5.2-1.867-7.867-7.667-5.933-12.8 1-2.8 3.2-4.934 5.933-5.934.267-.133.4-.333.4-.666V5.2c0-.266-.133-.466-.4-.533-.067 0-.2 0-.267.067-6.333 2-9.8 8.733-7.8 15.066 1.2 3.734 4.067 6.6 7.8 7.8.267.134.534 0 .6-.266.067-.067.067-.134.067-.267v-.933c0-.2-.2-.467-.4-.6Zm7.067-20.8c-.267-.134-.534 0-.6.266-.067.067-.067.134-.067.267V6.2c0 .267.2.534.4.667 5.2 1.867 7.867 7.667 5.933 12.8-1 2.8-3.2 4.933-5.933 5.933-.267.134-.4.334-.4.667v.933c0 .267.133.467.4.534.067 0 .2 0 .267-.067 6.333-2 9.8-8.733 7.8-15.067a12.091 12.091 0 0 0-7.8-7.866Z" fill="#fff"/></svg>
